X:1
T:Querflöte Sonate e-moll, HWV379 für Querflöte und bezifferten Baß (Op.I, Nr.1a)
T:Querflöte Sonate e-moll, HWV 379
T:für Querflöte und bezifferten Baß (Op. I, Nr. 1a) Transcribed for Rec, Bsn, Hch in g-moll from IMSLP#303264 PDF File
T:Georg Friedrich Händel (1685 — 1759) Edited by : Max Schneider (1875-1967) Rudolf Steglich (1886-1976)
T:Public Domain
T:Public Domain
T:Public Domain
T:Public Domain
T:Public Domain
T:Public Domain
T:Public Domain
T:Public Domain
T:Public Domain
T:Public Domain
C:Georg Friedrich Händel (1685 — 1759)
Z:Hallische Händel-Ausgabe, Serie IV: Instrumentalmusik (Klavier-, Kammer- und Orchestermusik)
Z:Public Domain
%%score [ 1 ( 2 3 ) ] { ( 4 5 7 8 ) | ( 6 9 ) }
L:1/8
Q:1/4=44
M:4/4
K:Bb
V:1 treble nm="Alto Recorder" snm="A. Rec."
V:2 bass nm="Fagotto" snm="Bsn."
V:3 bass 
V:4 treble nm="Harpsichord" snm="Hch."
V:5 treble 
V:7 treble 
V:8 treble 
V:6 bass 
V:9 bass 
V:1
"^1. Larghetto" d'/(g/^f/g/) d'/>g/e'/>g/ T=f/>=e/f- f/>d'/d'/>f/ | %1
 e/>G/F/>e/ e/>B/A/>e/ (e/c/)d z/ g/a/b/ | c'/>e/d/>c'/ c'/>g/^f/>c'/ c'/>=b/c'- c'/>e'/d'/>c'/ | %3
 (b/4a/4g/)a/>b/ T^f>g G/>=B/c/>e/ =f/>_a/g/>d'/ | e'd'/c'/ =b>c' =e/g/_b- b/4c'/4_d'c'/ | %5
 Ta/g/4f/<b/g/4 Ta>b b2 z/ g/a/>g/ | ^f/>d/=f/>c/ =B/>f/g/>f/ =e/>c/_e/>_B/ A/>e/f/>e/ | %7
 d/>^f/g/>b/ a/>=e/=f/>g/ ^c/>=B/A z/ d'/=e'/>d'/ | %8
 ^c'/>a/=c'/>g/ ^f/>c'/d'/>c'/ =b/>g/_b/>=f/ =e/>b/c'/>b/ | %9
 a/>f/_e/>d/ e/>g/g/>^f/ g/>b/e'/>d'/ ^c'/>a/d'/>d/ | ^c/>g/f/>=e/ e>d d2 z2 | %11
 d'/(g/^f/g/) d'/>g/e'/>g/ =f/>=e/f/>_A/ G/>=B/d/>f/ | e/>d'/c'/>e/ F/>A/c/>e/ e/>c/d z/ g/a/b/ | %13
 =e/>d/e- e/a/b/>c'/ ^f/>e/f- f/>a/ b/>d'/ | g/>=b/c'/>c/ f/>_a/g/>f/ e/>d/d/>c/ c/>c'/_b/>c'/ | %15
 _a/>g/g/>^f/ f/>g/Tg3/4(f/8g/16=a/16) d2 z/ G/d/>g/ | %16
 ^f/>d/=f/>c/ =B/>f/g/>f/ =e/>c/_e/>_B/ A/>e/f/>e/ | %17
 d/>b/_a/>g/ a/>c'/c'/>=b/ c'/>e'/e'/>^f/ f/>e'/d'/>c'/ | _b=a/>g/ ^f>g G/>B/(A/>^c/) =e/>g/b/>a/ | %19
!mf! T^f3/4=e/8d/8g/>G/ BA/>G/ G _e2 d- | dgc>d d4 ||[M:3/4][Q:1/4=100]"^2. Andante" d2 g3 a | %22
 ^f4 g2 | a3 c'ba | b3 a g2 | z2 d2 d2- | dg g/f/e e/d/c | c2 c2 c2- | cf f/e/d d/c/B | B2 b2 b2- | %30
 be' e'/d'/c' c'/b/a | a2 a2 a2- | ad' d'/c'/b b/a/g | g2 g2 g2- | gc' c'/b/a a/g/^f | %35
 ^f>g g3 f/g/ | a>d a/b/c' c'/b/a | b/a/g g/f/=e e>b | a/g/f f/=e/d d>a | g/f/=e e/d/^c c>g | %40
 f/=e/d g/f/e a/g/f | b/a/b g/a/f =e/f/d | ^c2 a3 a | d'2 g3 g | g3 af>=e | f>d' f2 =e>d | %46
 d2 a3 a | d2 g3 B | A3 gf>=e | f/=e/d ^c3 d | d6 :: f2 b3 c' | a4 b2 | c2 d2 e2 | d3 =e f2 | %55
 g2 a2 b>c' | a3 g f2 | z2 f2 f2 | f3 ge>d | e>c' e2 d>c | c2 e2 e2 | c'3 b/a/ ba/g/ | %62
 f/g/e d2 c>B | B>b b/a/g g/f/=e | =e>c' c'/b/a a/g/^f | ^f>d' d'/c'/b b/a/g | g/f/e e/d/c c/B/A | %67
 A>c' c'/b/a a/g/^f | ^f/=e/d d/c/B c/B/A | B>dA>dG>g | ^f>dg>da>d | b>da>dg>a | ^f2 d'3 d' | %73
 g2 c'3 c' | d3 c'b>a | b/a/g ^f3 g | g2 d3 d | G2 c3 c | a3 g/^f/ g>A | B>c B2 A>G | G6 :| x/8 | %82
[M:4/4]"^3. Largo"[Q:1/4=50] z Bdf c'4- | c'fbd' g>f e/>d/c/>B/ | AF z f g/>A/B/>F/ e>d | %85
 d2 z d/e/4f/4 cd/e/4f/4 Bg/>B/ | Acfa d'>c' b/>a/g/>f/ | =ec z c' d'/>e/f/>c/ b>a | %88
 a2 z d' g3/2a/4b/4 a>g | fd z f e-e/4g/4f/4e/4 c'>e | ed g2- ga/>g/ ^fg/>a/ | %91
 bg/>=f/ e2- ef/e/ de/f/ | gc c'2- c'/d'/b/>a/ b2- | b/b/a/>g/ a2- ad'/b/ gg- | %94
 gaf=e f3/2g/4e/4 e>d | d2 b2- bc'/b/ a/g/f/_e/ | dc/>B/ g2- ga/g/ ^f/=e/d/c/ | %97
 BA/G/ c2- cd/c/ =Bc/d/ | ed/c/ _a2- ag c'2- | c'b/=a/ ba/g/ ^fg/c'/ ba/>g/ | gG e2- eA d2- | %101
 d _a2 g e2 d2- | dgc>d d4 ||[M:3/8][Q:3/8=50]"^Allegro" z gd | gba | bd'c' | d'c'/b/a/g/ | %107
 ^f/a/d'/=f/g/f/ | =e/g/c'/_e/f/e/ | d/c'/b/a/b/d/ | c/b/a/g/a/c/ | B/d/g/f/e/d/ | %112
 c/e'/B/d'/A/c'/ | b/g/d'/^f/g- | g/a/ba/>g/ | g>ga/b/ | f/a/c'/d/e/c/ | d/c/Bd'- | %118
 d'/b/c'/a/b/g/ | abf | bdc | dfe | fB/d'/c'/b/ | a/b/c'/e/d/c/ | d/f/e/d/c/B/ | A/c/d/e/f/B/ | %126
 A/f/g/a/b/d/ | c/a/b/c'/d'/f/ | e/d'/c'/b/c'/e/ | d/f'/c/e'/B/d'/ | g/e'/f/d'/e/c'/ | %131
 d/c'/b/a/b/d/ | c/b<ab/ |1 b3 :|2 b2 z |: z BF | Bdc | dfe | fag | ac'=b | c'e'd' | e'c/d/e/f/ | %142
 g/c/c'/=b/c'/d'/ | =b/g/d'/f/e/d/ | e/g/f/e/d/c/ | =B/G/d/B/g/d/ | e/c/g/e/c'/g/ | %147
 _a/f/c'/a/g/f/ | g/=b/ c'/g/f/e/ | d/=b/c'/f/e/d/ | e/g/c'/b/_a/g/ | _a/g/f/e/d/c/ | %152
 =B/g/d'/f/e/c'/ | =b/c'/ed/>c/ | c g2- | g/b/a/g/f/=e/ | f/g/a/f/=e/d/ | ^c/d/=e/G/A/G/ | %158
 F/a/G/b/A/a/ | B/d/g/b/a/^c'/ | d'/=e<ed/ | dgd | gba | bd'c' | d'dg | ^f/d/=f/G/d/f/ | %166
 =e/c/_e/F/c/e/ | d/d'/g/f/=e/d/ | =e/d'/c'/b/a/g/ | ^f/a/d/c'/b/a/ | b/a/g/f/e/d/ | %171
 c/e'/B/d'/A/c'/ | B/d'/A/c'/G/b/ | A/c'/G/b/a/d/ | b/^f/g/d/d'/=f/ | e/d'/c'/ b/a/g/ | %176
 ^f/a/d/c/B/g/ | ^f/g/BA/>G/ | G3 :| z/8 |[M:4/4]"^Presto"[Q:1/4=130] d2 ga | ^f3 =e/d/ g2 Ta2 | %182
 b4 d2 a2 | b3 a b2 c'2 | a4 a2 b2 | g3 ^f g2 a2 | ^f4 g2 d2 | e3 d e2 f2 | d3 f b2 c'2 | %189
 a3 f b3 f | gfed c2 a2 | b4 f2 ba | gfed c3 B | B4 :: dfcf | dfAf Bfcf | d4 egdg | eg=Bg cgdg | %198
 e3 g c2 f2- | fged d3 c | c3 c f2 e>d | d3 d g2 f>=e | =e3 e a2 g>^f | ^f3 g a2 d'2 | b3 a g2 fg | %205
 e2 d2 c3 d | d4 d2 ga | ^f3 =e/d/ g2 a2 | b3 a bd'^fd' | gd'ad' bd'dd' | g3 g c'bag | %211
 ^f2 gc' b2 a>g | g3 f ed c2- | cdBA A3 G | G4 :| %215
V:2
 G,A,B,C DC=B,G, | C A,F,F B,B,/A,/ B,G, | A,^F,D,D ECA,^F | GCDD, E,ED=B, | CFGG, CG,=E,=E | %5
 FG/>E/ FF, B,G,/>A,/ B,C | DD,G,=B, CC,F,A, | B,G,^CD A,A,,/>G,/ F,G, | A,A,,D,^F, G,GC=E | %9
 FF,G,A, B,G-GF | =EDA,A,, D,D/>C/ B,A, | G,A,B,C DC=B,G, | C,CA,F, B,B,/>A,/ B,G, | %13
 CC/>B,/ CA, DD/>C/ DD, | E,ED=B, CDED | CB,A,G, ^F,D/>C/ B,G, | DD,G,=B, CC,F,A, | %17
 B,B,,C,D, E,C D,^F, | G,CDD, =E,2 z ^C | D_E/>=C/ DD, G,2 F,2 | E,4 D,4 ||[M:3/4] G,^F,G,A,B,C | %22
 DEDCB,G, | CA, D2 D,2 | G,D,G,^F,G,A, | B,/C/D/C/ B,/C/A,/B,/ G,/A,/=F,/G,/ | E,2 E2 z2 | %27
 A,/B,/C/B,/ A,/B,/G,/A,/ F,/G,/E,/F,/ | D,2 D2 z2 | G,/A,/B,/A,/ G,/A,/F,/G,/ E,/F,/D,/E,/ | %30
 C,2 C2 z2 | F,/G,/A,/G,/ F,/G,/E,/F,/ D,/E,/C,/D,/ | B,,2 B,2 z2 | %33
 E,/F,/G,/F,/ E,/F,/D,/E,/ C,/D,/B,,/C,/ | A,,2 A,2 z2 | D2 B,2 G,2 | D2 ^F,2 D,2 | G,2 B,2 C2 | %38
 F,2 A,2 B,2 | =E,2 G,2 A,2 | D,2 =E,2 F,2 | G,2 B,2 G,2 | A,A/G/ F/G/=E/F/ D/E/C/D/ | %43
 B,B/A/ G/A/F/G/ =E/F/D/E/ | ^C2 A,2 D2 | G,2 A,2 z A | F/G/A/G/ F/G/=E/F/ D/E/C/D/ | %47
 B,/C/A,/B,/ G,/A,/F,/G,/ =E,/F,/D,/E,/ | ^C,2 A,,2 D,2 | G,2 A,2 A,,2 | D,EDCB,A, :: B,A,B,CDE | %52
 FGFEDB, | ECFEFF, | B,A,B,CDA, | B,G,CB,CC, | F,=E,F,G,A,F, | D/E/F/E/ D/E/C/D/ =B,/C/=A,/B,/ | %58
 G,=A,=B,G, C2 | F,2 G,2 G,,2 | C/D/E/D/ C/D/B,/C/ A,/B,/G,/A,/ | F,G,A,F, G,2 | DE F2 F,2 | %63
 B,2 G,2 B,2 | C2 A,2 C2 | D2 B,2 G,2 | E,2 G,2 E,2 | C,2 A,,2 C,2 | D,2 ^F,2 D,2 | G,2 =F,2 _E,2 | %70
 D,2 =E,2 ^F,2 | G,2 =F,2 _E,2 | D,D/C/ B,/C/A,/B,/ G,/A,/F,/G,/ | E,E/D/ C/D/B,/C/ A,/B,/G,/A,/ | %74
 ^F,2 D,2 G,2 | C2 D2 D,2 | G,D/C/ B,/C/A,/B,/ G,/A,/F,/G,/ | %77
 E,/F,/D,/E,/ C,/D,/B,,/C,/ A,,/B,,/G,,/A,,/ | ^F,,2 D,2 E,2 | C,2 D,4 | G,,6 :| z/8 | %82
[M:4/4] B,,2 B,2- B,A,/G,/ A,F, | D2 z B, E,F,G,E, | F,FDB, EDCF, | B,CDB, A,F,G,=E, | %86
 F,2 z F B,CDB, | C,CA,F, B,A,G,C, | F,C F2- F=E/D/ ^CA, | D,D/>^C/ DD, G,=CA,F, | %90
 B,B,, z B, CA,DD, | G,G,, z C _A,F,B,B,, | E,2 z C, G,2 z =E, | F,2 z D, B,2 z G, | %94
 ^C A,DG, A,G,A,A,, | D,2 z G ECFA, | B,B,, z E CA,D^F, | G,G,, z E, =F,D,G,G,, | %98
 C,G,CD EE, ED/C/ | D^F,G,C DE/C/ DD, | G,2 z G, ^F,2 z =F, | B,,2 =B,,2 C,C^F,G, | E,4 D,4 || %103
[M:3/8] G,,2 z | z G,D, | G,B,A, | B,DC | D=B,G, | CA,F, | B,DG | =E^FD | GB,G, | CDD, | %113
 G,>A,B,/G,/ | E/C/DD, | G,B,G, | A,F,A, | B,DB, | E=EC | F z z | z B,F, | B,DC | DD,E, | F,A,F, | %124
 B,G,E, | F,FD | CFB, | A,F,B, | G,2 A, | B,CD/B,/ | E/C/FF, | B,F,G, | E,F,F,, |1 %133
 B,,D/C/B,/A,/ :|2 B,,D/C/B,/A,/ |: B,3 | z B,F, | B,DC | DCB, | FED | EC=B, | CED | %142
 EC,/D,/E,/F,/ | G,=B,G, | CE,F, | G,G,,=B,, | C,CE, | F,z/F/E/D/ | Ez/E,/D,/C,/ | D,z/D/C/=B,/ | %150
 CE,C, | F, G,_A, | G,=B,C | F,G,G,, | C,CB, | A,^CA, | DF,G, | A,^CA, | DG,F, | B,>G,F,/=E,/ | %160
 F,/G,/A,A,, | D, z z | z G,D, | G,B,A, | B,B,,C, | D,=B,G, | CA,F, | B,B,,G, | CA,C | D^FD | %170
 G,B,G, | CE,F, | B,,D,E, | C,CD | G,B,=B, | C EC | D^F,G, | C, D,2 | G,,3 :| z/8 | %180
[M:4/4] G,A,B,C | DA,DC B,G^FD | GDG,G ^F=EFD | GG,G=F =EDEC | FF,F_E DCDB, | EE,ED CB,CA, | %186
 DD,DC B,A,B,G, | CC,CB, A,G,A,F, | B,B,,B,A, G,F,=E,C, | F,C,F,_E, D,C,D,B,, | %190
 E,F,G,D, E,C,F,F,, | B,,A,,B,,C, D,C,D,B,, | E,F,G,D, E,C,F,F,, | B,,4 :: B,,B,A,F, | %195
 B,DCE DB,A,F, | B,B,,D,B,, C,C=B,G, | CEDF EC=B,G, | CC,E,C, _A,G,A,F, | =B,G,CF, G,F,G,G,, | %200
 C,G,CB, A,G,A,F, | B,CB,A, G,A,B,G, | CDCB, A,B,CA, | DA,D,=E, ^F,E,F,D, | G,^F,G,A, B,G,A,B, | %205
 CC,D,D EDEE, | D,=E,^F,D, G,A,B,C | DA,DC B,G^FD | GG,B,D G,B,A,C | B,G^FD GFGD | EFED CDEE, | %211
 D,A,B,C DCDD, | G,A,B,G, C,D,E,C, | ^F,D,G,C, D,2 D,2 | G,,4 :| %215
V:3
 x8 | x8 | x8 | x8 | x8 | x8 | x8 | x8 | x8 | x8 | x8 | x8 | x8 | x8 | x8 | x8 | x8 | x8 | x8 | %19
 x8 | x8 ||[M:3/4] x6 | x6 | x6 | x6 | x6 | x6 | x6 | x6 | x6 | x6 | x6 | x6 | x6 | x6 | x6 | x6 | %37
 x6 | x6 | x6 | x6 | x6 | x6 | x6 | x6 | x6 | x6 | x6 | x6 | x6 | x6 :: x6 | x6 | x2 F2 F2 | x6 | %55
 x6 | x6 | x6 | x6 | x6 | x6 | x6 | x6 | x6 | x6 | x6 | x6 | x6 | x6 | x6 | x6 | x6 | x6 | x6 | %74
 x6 | x6 | x6 | x6 | x6 | x6 | x6 :| |[M:4/4] x8 | x8 | x8 | x8 | x8 | x8 | x8 | x8 | x8 | x8 | %92
 x8 | x8 | x8 | x8 | x8 | x8 | x8 | x8 | x8 | x8 | x8 ||[M:3/8] x3 | x3 | x3 | x3 | x3 | x3 | x3 | %110
 x3 | x3 | x3 | x3 | x3 | x3 | x3 | x3 | x3 | x3 | x3 | x3 | x3 | x3 | x3 | x3 | x3 | x3 | x3 | %129
 x3 | x3 | x3 | x3 |1 x3 :|2 x3 |: x3 | x3 | x3 | x3 | x3 | x3 | x3 | x3 | x3 | x3 | x3 | x3 | x3 | %148
 x3 | x3 | x3 | x3 | x3 | x3 | x3 | x3 | x3 | x3 | x3 | x3 | x3 | x3 | x3 | x3 | x3 | x3 | x3 | %167
 x3 | x3 | x3 | x3 | x3 | x3 | x3 | x3 | x3 | x3 | x3 | x3 :| |[M:4/4] x4 | x8 | x8 | x8 | x8 | %185
 x8 | x8 | x8 | x8 | x8 | x8 | x8 | x8 | x4 :: x4 | x8 | x8 | x8 | x8 | x8 | x8 | x8 | x8 | x8 | %204
 x8 | x8 | x8 | x8 | x8 | x8 | x8 | x8 | x8 | x8 | x4 :| %215
V:4
 [gb][^fa]ge [e=f][df-][df]d | e[ce] [ce]2 ed/c/ dg | ^fd f2 c/d/e fd/a/ | gg ^f2 g2 =f2 | %4
 eddg =eegg | fe/>g/ ce dd g2 | ^f =f2 f =e _e2 c | dc=ed ^cedg | %8
 [^c=e][=ce][c^f][cd] [=Bd][_Bd][Be][Bc] | [Ac]c_eg/>^f/ ge[^c=e]d | ^cddc d^f/>a/ g[fa] | %11
 [gb][^fb]ge [e=f][df][dg][=Bd] | dc c2 ed/>c/ d[dg] | [c=e]e/>d/ e[ea] [d^f]f/>e/ [df][Bd=f] | %14
 g2 fd edce | [df][dg]^fg ag/>f/ gd | dc=Bd c_BAc | B[Bd][_Ae]c c[ce] dd/a/ | %18
 [dg][ea] [d^f]2 [^cg]2 z [=eg] | [d^f]g/>e/ c[d^g] g e2 d- | d2 c2 d4 ||[M:3/4] d2 d2 g2 | %22
 ^f2 [fa]2 g2 | [eg]2 [d^f]4 | [dg]3 dg^f | [Bdg]B/A/ G/A/^F/G/ B/c/[Ad]/B/ | dc/B/ c2 z2 | %27
 [Gc]e/d/ c/d/B/c/ A/B/[Gc]/A/ | cB/A/ B2 z2 | [GB]d/c/ B/c/A/B/ G/A/[FB]/G/ | BA/G/ A2 z2 | %31
 [Ac]f/e/ d/e/c/d/ f/g/[Ae]/f/ | d4 z2 | [Gc]e/d/ c/d/B/c/ e/f/[Gd]/e/ | c4 z2 | A2 d2 d2 | %36
 [d^f]2 d2 [df]2 | [dg]2 d2 [c=e]2 | [cf]2 c2 [Bd]2 | [Bd]2 [Bd]2 [A^c]2 | [Ad]2 [G^c]2 [Ad]2 | %41
 !arpeggio![GBd]2 gf [=eg]2 | =ef/e/ z4 | [da]g/f/ =e/f/d/e/ c/d/[GB]/c/ | A2 [^c=e]2 [Ad]2 | %45
 [Bd]2 d2 [^c=e]2 | [Ad]f/=e/ d/e/c/d/ f/g/e/f/ | g/a/f/g/ =e/f/d/e/ ^c/d/[FB]/G/ | =e4 [Ad]2 | %49
 [Bd]2 A2 [A^c]2 | [FAd]4 d2 :: d2 defg | a4 fd | ce [Bd]2 [Ac]2 | d2 dc f2 | [df]2 f2 [c=e]2 | %56
 [cf]3 =e f2 | Bd/c/ B/c/A/B/ d/e/c/d/ | =BcdB e2 | [ce]2 [ce]2 [=Bd]2 | %60
 G/c/B/ z/ =A/B/G/A/ F/G/E/F/ | ABc[Ac] [GB]2 | Bc [Bd]2 [Ac]2 | B2 B2 d2 | =e2 c2 (e2 | %65
 [d^f]2) [dg]2 d2 | e4 c2 | [Ae]2 [ce]2 [Ae]2 | [Ad]2 [Ad]2 [^FA]2 | [GB]2 A2 c2 | d4 d2 | %71
 d2 d2 [cg]2 | [d^f]2 g2 B/c/[Ad]/B/ | [Gd]c/d/ e/f/d/e/ c/d/B/c/ | d2 ^f2 g2 | [eg]2 d2 [d^f]2 | %76
 [Bdg]B/A/ G/A/c/d/ B/c/[Ad]/B/ | G/A/F/G/ E/F/G/A/ F/G/E/F/ | [Ac]4 B2 | [GB]2 [GB]2 [^FA]2 | %80
 G6 :| z/8 |[M:4/4] F2 [Bd]2 [ce]2 [cf]2 | f2 z d e3 c | c2 B[Bd] [Be]B e2 | %85
 defd cAB!arpeggio![GB] | A2 z c defd | =e2 f2 dffe | f2 cd d=e/f/ e^c | dA [Ad]2 [B_e]2 e2 | %90
 ed z g [eg]2 ^f2 | g2 z e [ce]2 d2 | dc z e d2 z [cg] | [cf]2 z [df] [df]g z [dg] | g2 f=e f2 e2 | %95
 d2 z d g_e [cf]2 | [Bd]2 z [eg] [eg]2 [d^f][da] | [dg]2 z [cg] [cd]2 [=Bd]2 | [ce]2 ef eg g2 | %99
 ^fdga fgdf | g2 z B [Ac]2 z [Ad] | f2 fg e2 d2 | d2 c2 d4 ||[M:3/8] [GB]2 z | z d^f | g2 [^fa] | %106
 g2 [ea] | ^f=fd | =e_ec | d2 d | [cg][cd][^fa] | ag[dg] | [ce][Bd][d^f] | [dg]>^fg | g/e/d[d^f] | %115
 [dg]2 d | f2 c | d ff | g2 [c=e] | [cf] z z | z Bc | [Bd]2 [Ae] | d fe | [Ac][cf]c | dec | c2 B | %126
 ecd | cfd | e2 e | [Bd][Ac]B/d/ | ed[Ac] | [Bd]cB | [GB][FA][Ac] |1 d/e/f/e/d/c/ :|2 dfc |: %135
 [FB]2 z | z [Bd][Ac] | [Bd]2 a | bag | ag=b | c'2 g | ec[=Bd] | ce/d/c | =B[dg][Bd] | ecc | %145
 =B2 d | [ce]2 [cg] | [cf]2 c | c2 c | =B2 [Gd] | [Gc]2 [ce] | f2 [cf] | [=Bd][df][ce] | %153
 [cd][ce][=Bd] | [Gc]2 d | =e2 =c | d2 [B=e] | =c=ec | d2 d | dgg | [df]/=e/d^c | [Ad] z z | %162
 z [Bd]c | g2 [^fa] | [dg]2 ([eg] | [df])[d=f][=Bd] | [c=e][c_e][Ac] | [Bd]2 =e | =ece | ^fd[df] | %170
 [dg]2 (d | [ce])[Bd][Ac] | [Bd][Ac]B | [Ac][GB]A | Bd[df] | e2 [ce] | [Ad]A[GB] | [GA][GB][^FA] | %178
 G3 :| z/8 |[M:4/4] d2 g2 | [d^f]2 [da]2 [dg]2 [da]2 | [dg]4 d2 d^f | g2 d2 g2 g2 | f2 c2 f2 f2 | %185
 e2 Bd e2 e2 | d2 d^f [dg]2 d2 | d2 c2 e2 e2 | dc d2 g2 g2 | f4 f2 Bd | ede[df] g2 f2 | %191
 d2 de fe f2 | B2 Bd [Bc]2 [Ac]2 | [DFB]4 :: d2 fa | b2 a2 b2 c'a | f4 e2 d=B | [ce]2 =B2 c2 dB | %198
 [ce]2 c2 c2 c2 | d2 c2 c2 =B2 | c4 c2 c2 | d2 d2 dc d2 | =e4 e2 e2 | ^f2 f=e d2 [da]2 | %204
 ([dg]2 z ^f) g2 d2 | [ce]2 [Ad]2 d2 c2 | d2 [da]^f d2 g2 | ^f2 a2 g2 df | g3 a g2 ^f2 | %209
 g2 a2 g2 d2 | d2 cd e2 cg | ^f2 [dg][ce] [Bd]2 [df]2 | [dg]2 d2 ed c2 | c2 BA A4 | G4 :| %215
V:5
 dcdc/B/ A_A G/=A/=B | GF/G/ A2 [FB]BG[Bd] | [Ac]2 [Ac]2 [Gg]2 [Ac]A | %3
 [Bd][Aeg] [Ad]2 [Gc]2 [_Ac][Gd] | [Gc][_Ac] =B2 [Gc][G_B][B_d]G | [Ac]B A2 [FB]B/>c/ d[ce] | %6
 [Ad][Ac][G=B][Gd] [Gc][G_B][FA]F | [DG][FAc].[=EA][=FA] [EA][A^c]A[B=e] | %8
 AAAA G[I:staff +1]G[I:staff -1]GG | FAB[ce] [Bd]BAA | G[FA] [=EA]2 [^FA][Ad] [Bd]^c | %11
 .dcdc/B/ A_AGG | [EG]2 [EF][FA] [FB]B GB | Gc Ac A[Ad] A2 | .[Gd][Gc][_A=B][Gd] [Gc][^FA]G[G_B] | %15
 _AG[=Ac][Bd] [Ad][Ad] [Gd][GB] | [^FA]([=FA][DG])[DG] [=EG][_EG]E[EF] | [DF]FEF GG [^F=A][Ad] | %18
 _Bc A2 G2 x A | A[Gc] [Ac]A [Bd]A[Ac][FA] | G4 [^FA]4 ||[M:3/4] B2 Bcde | d2 d2 dB | A2 A2 c2 | %24
 B3 ABc | x6 | x6 | x6 | F4 x2 | x6 | x6 | x6 | AG/F/ G2 x2 | x6 | G^F/=E/ F2 x2 | ^F2 GA B2 | %36
 A2 A2 A2 | .B2 G2 G2 | A2 F2 F2 | G2 =E2 E2 | F2 =E2 D2 | x2 [Gd]2 Bd | %42
 ^cc d/=e/c/d/ f/g/[ea]/f/ | x6 | [=EG]2 x4 | F2 [FA]2 A[I:staff +1]A | x6 | x6 | %48
[I:staff -1] G4 F2 | F2 F2 =E2 | F4 dc :: B2 B2 Be | cedc B2 | [GB]2 x4 | [FB]2 B2 Ac | %55
 GB [Ac]2 G2 | A3 BcA | F2 x2 GG | G2 G2 G2 | _A2 G2 G2 | E[I:staff +1]E x4 | %61
[I:staff -1] E2 x E D2 | FG x2 E2 | [DF]2 G2 G2 | G2 A2 A2 | A2 G2 B2 | [GB]2 [EB]2 G2 | E2 G2 G2 | %68
 ^F2 D2 D2 | D2 D2 G2 | [^FA]2 G2 A2 | B2 A2 G2 | AB/c/ d/e/c/d/ x2 | x6 | x4 B2 | B2 B2 A2 | x6 | %77
 x6 | D2 ^F2 G2 | E2 D2 D2 | [B,D]4 x2 :| x/4 |[M:4/4] D2 F2 G2 F2 | F3 [FB] [GB][FA][EB]G | %84
 A2 F2 GF[GB][Ac] | [FB]2 [FB]2 F2 =EC | [CF]2 x A [FB]2 [FB]2 | [Gc]2 F2 [FB][Fc] [GB]2 | %88
 A2 A2 [GB][Gc] [EA]2 | [FA]F/>=E/ F2 BG F2 | [FB]2 x d Ac [Ad]2 | [Bd]2 x [Gc] F_A [FB]2 | %92
 [GB]2 x [Gc] G2 x B | BA x A AG x B | A2 [Ad][Bd] [Ad]2 [A^c]2 | [FA]2 x B [B=c]2 AF | %96
 F2 x B AcAA | B2 x G _A2 G2 | G2 c_B B2 c x | [Ad][cd][Bd][Ae] [Ad][Gc]/[Ae]/ B[Ad] | %100
 [Bd]2 x e e2 x d | [_Ad]2 [Ad-][Gd] [Gc]2 =AB | G4 [^FA]4 ||[M:3/8] D2 x | x Bc | [Bd]2 c | dBA | %107
 [Ad]2 =B | [Gc]2 A | cB x | BAc | [Bd]2 B | G2 A | B>cd/B/ | [Gc][GB]A | BGB | cAF | [FB]2 [Bd] | %118
 G2 G | A x2 | x [DF][FA] | F2 E | [FB]2 [GB] | F2 [FA] | FEG | A2 F | A2 B | FAB | [Bd]2 [Fc] | %129
 FEF | B2 x | FED | C2 F |1 [FB]2 ^F :|2 [FB]2 F |: D2 x | x FF | F2 e | f2 d | c2 f | [eg]2 d | %141
 G2 F | G2 G/_A/ | GGG | G2 [F_A] | [DG]2 G | G2 G | _A2 A | G2 G | F2 F | E2 G | F2 F | G2 G | %153
 _AGF | E2 G | G2 [GA] | [FA]AG | [=EA]2 [EA] | [FA][GB]A | G2 [G^c] | A/B/ [=EA]2 | ^F x2 | %162
 x g^f | [Bd]2 c | B2 B | A G2 | G F2 | FGB | G2 A | A2 A | B2 B | G2 E | F2 G | E2 ^F | G2 G | %175
 G2 G | ^F D2 | EDC | B,3 :| x/4 |[M:4/4] B2 B2 | A2 A2 B2 c2 | B4 A2 A2 | %183
 [Bd]2 [Bd]2 [Bc]2 [Bc]2 | [Ac]2 [Ac]2 [AB]2 [AB]2 | [GB]2 [GB]2 [GA]2 [GA]2 | [^FA]2 A2 G2 G=F | %187
 [EG]4 F2 [Fc]2 | [FB]2 B2 [Bd]2 B2 | [Ac]2 F2 [FB]2 [FB]2 | [GB]2 B2 [Bc]2 [Ac]2 | %191
 [FB]4 [FB]2 [FB]2 | G2 GF G2 F2 | D4 :: B2 c2 | d2 ec [df]2 [cf]2 | d2 BA G2 G2 | %197
 G2 F[I:staff +1]F[I:staff -1] G2 G2 | G2 [EG]2 [EG]2 F2 | [FG]2 [EG][F_A] [DG]4 | [EG]4 F2 F2 | %201
 [FB]2 [FB]2 [GB]2 [GB]2 | G4 [Ac]2 A2 | A2 [Ad][G^c] A2 A2 | B3 c d2 G2 | G2 ^F2 G4 | %206
 [^FA]2 c2 B2 de | [Ad]2 [Ad]2 [Bd]2 c2 | [Bd]3 c [Bd]2 cA | [Bd]2 [cd]2 [Bd]2 B2 | G4 G2 c2 | %211
 [Ad]2 G2 G2 A2 | B2 G2 GF [EG]2 | [DA]2 DE D4 | [B,D]4 :| %215
V:6
 G,A,B,C DC=B,G, | C A,F,F B,B,/A,/ B,G, | A,^F,D,D ECA,^F | GCDD, E,ED=B, | CFGG, CG,=E,=E | %5
 FG/>E/ FF, B,G,/>A,/ B,C | DD,G,=B, CC,F,A, | B,G,^CD A,A,,/>G,/ F,G, | A,A,,D,^F, G,GC=E | %9
 FF,G,A, B,G-GF | =EDA,A,, D,D/>C/ B,A, | G,A,B,C DC=B,G, | C,CA,F, B,B,/>A,/ B,G, | %13
 CC/>B,/ CA, DD/>C/ DD, | E,ED=B, CDED | CB,A,G, ^F,D/>C/ B,G, | DD,G,=B, CC,F,A, | %17
 B,B,,C,D, E,C D,^F, | G,CDD, =E,2 z ^C | D_E/>=C/ DD, G,2 F,2 | E,4 D,4 ||[M:3/4] G,^F,G,A,B,C | %22
 DEDCB,G, | CA, D2 D,2 | G,D,G,^F,G,A, | B,/C/D/C/ B,/C/A,/B,/ G,/A,/=F,/G,/ | E,2 E2 z2 | %27
 A,/B,/C/B,/ A,/B,/G,/A,/ F,/G,/E,/F,/ | D,2 D2 z2 | G,/A,/B,/A,/ G,/A,/F,/G,/ E,/F,/D,/E,/ | %30
 C,2 C2 z2 | F,/G,/A,/G,/ F,/G,/E,/F,/ D,/E,/C,/D,/ | B,,2 B,2 z2 | %33
 E,/F,/G,/F,/ E,/F,/D,/E,/ C,/D,/B,,/C,/ | A,,2 A,2 z2 | D2 B,2 G,2 | D2 ^F,2 D,2 | G,2 B,2 C2 | %38
 F,2 A,2 B,2 | =E,2 G,2 A,2 | D,2 =E,2 F,2 | G,2 B,2 G,2 | A,A/G/ F/G/=E/F/ D/E/C/D/ | %43
 B,B/A/ G/A/F/G/ =E/F/D/E/ | ^C2 A,2 D2 | G,2 A,2 z A | F/G/A/G/ F/G/=E/F/ D/E/C/D/ | %47
 B,/C/A,/B,/ G,/A,/F,/G,/ =E,/F,/D,/E,/ | ^C,2 A,,2 D,2 | G,2 A,2 A,,2 | D,EDCB,A, :: B,A,B,CDE | %52
 FGFEDB, | ECFEFF, | B,A,B,CDA, | B,G,CB,CC, | F,=E,F,G,A,F, | D/E/F/E/ D/E/C/D/ =B,/C/=A,/B,/ | %58
 G,=A,=B,G, C2 | F,2 G,2 G,,2 | C/D/E/D/ C/D/B,/C/ A,/B,/G,/A,/ | F,G,A,F, G,2 | DE F2 F,2 | %63
 B,2 G,2 B,2 | C2 A,2 C2 | D2 B,2 G,2 | E,2 G,2 E,2 | C,2 A,,2 C,2 | D,2 ^F,2 D,2 | G,2 =F,2 _E,2 | %70
 D,2 =E,2 ^F,2 | G,2 =F,2 _E,2 | D,D/C/ B,/C/A,/B,/ G,/A,/F,/G,/ | E,E/D/ C/D/B,/C/ A,/B,/G,/A,/ | %74
 ^F,2 D,2 G,2 | C2 D2 D,2 | G,D/C/ B,/C/A,/B,/ G,/A,/F,/G,/ | %77
 E,/F,/D,/E,/ C,/D,/B,,/C,/ A,,/B,,/G,,/A,,/ | ^F,,2 D,2 E,2 | C,2 D,4 | G,,6 :| z/8 | %82
[M:4/4] B,,2 B,2- B,A,/G,/ A,F, | D2 z B, E,F,G,E, | F,FDB, EDCF, | B,CDB, A,F,G,=E, | %86
 F,2 z F B,CDB, | C,CA,F, B,A,G,C, | F,C F2- F=E/D/ ^CA, | D,D/>^C/ DD, G,=CA,F, | %90
 B,B,, z B, CA,DD, | G,G,, z C _A,F,B,B,, | E,2 z C, G,2 z =E, | F,2 z D, B,2 z G, | %94
 ^C A,DG, A,G,A,A,, | D,2 z G ECFA, | B,B,, z E CA,D^F, | G,G,, z E, =F,D,G,G,, | %98
 C,G,CD EE, ED/C/ | D^F,G,C DE/C/ DD, | G,2 z G, ^F,2 z =F, | B,,2 =B,,2 C,C^F,G, | E,4 D,4 || %103
[M:3/8] G,,2 z | z G,D, | G,B,A, | B,DC | D=B,G, | CA,F, | B,DG | =E^FD | GB,G, | CDD, | %113
 G,>A,B,/G,/ | E/C/DD, | G,B,G, | A,F,A, | B,DB, | E=EC | F z z | z B,F, | B,DC | DD,E, | F,A,F, | %124
 B,G,E, | F,FD | CFB, | A,F,B, | G,2 A, | B,CD/B,/ | E/C/FF, | B,F,G, | E,F,F,, |1 %133
 B,,D/C/B,/A,/ :|2 B,,D/C/B,/A,/ |: B,3 | z B,F, | B,DC | DCB, | FED | EC=B, | CED | %142
 EC,/D,/E,/F,/ | G,=B,G, | CE,F, | G,G,,=B,, | C,CE, | F,z/F/E/D/ | Ez/E,/D,/C,/ | D,z/D/C/=B,/ | %150
 CE,C, | F, G,_A, | G,=B,C | F,G,G,, | C,CB, | A,^CA, | DF,G, | A,^CA, | DG,F, | B,>G,F,/=E,/ | %160
 F,/G,/A,A,, | D, z z | z G,D, | G,B,A, | B,B,,C, | D,=B,G, | CA,F, | B,B,,G, | CA,C | D^FD | %170
 G,B,G, | CE,F, | B,,D,E, | C,CD | G,B,=B, | C EC | D^F,G, | C, D,2 | G,,3 :| z/8 | %180
[M:4/4] G,A,B,C | DA,DC B,G^FD | GDG,G ^F=EFD | GG,G=F =EDEC | FF,F_E DCDB, | EE,ED CB,CA, | %186
 DD,DC B,A,B,G, | CC,CB, A,G,A,F, | B,B,,B,A, G,F,=E,C, | F,C,F,_E, D,C,D,B,, | %190
 E,F,G,D, E,C,F,F,, | B,,A,,B,,C, D,C,D,B,, | E,F,G,D, E,C,F,F,, | B,,4 :: B,,B,A,F, | %195
 B,DCE DB,A,F, | B,B,,D,B,, C,C=B,G, | CEDF EC=B,G, | CC,E,C, _A,G,A,F, | =B,G,CF, G,F,G,G,, | %200
 C,G,CB, A,G,A,F, | B,CB,A, G,A,B,G, | CDCB, A,B,CA, | DA,D,=E, ^F,E,F,D, | G,^F,G,A, B,G,A,B, | %205
 CC,D,D EDEE, | D,=E,^F,D, G,A,B,C | DA,DC B,G^FD | GG,B,D G,B,A,C | B,G^FD GFGD | EFED CDEE, | %211
 D,A,B,C DCDD, | G,A,B,G, C,D,E,C, | ^F,D,G,C, D,2 D,2 | G,,4 :| %215
V:7
 x8 | d/c/ x7 | x8 | x8 | x8 | x8 | x8 | x8 | x8 | x8 | x8 | x8 | x8 | x8 | x8 | x8 | x8 | x8 | %18
 x8 | x8 | x8 ||[M:3/4] x6 | x6 | x6 | x6 | x6 | x6 | x6 | x6 | x6 | x6 | x6 | x6 | x6 | x6 | x6 | %36
 x6 | x6 | x6 | x6 | x6 | x6 | x6 | x6 | x6 | x6 | x6 | x6 | x6 | x6 | x6 :: x6 | x6 | x6 | x6 | %55
 x6 | x6 | x6 | x6 | x6 | x6 | x6 | x6 | x6 | x6 | x6 | x6 | x6 | x6 | x6 | x6 | x6 | x6 | x6 | %74
 x6 | x6 | x6 | x6 | x6 | x6 | x6 :| x/4 |[M:4/4] x8 | x8 | x8 | x8 | x8 | x8 | x8 | x8 | x8 | x8 | %92
 x4 cB x2 | x8 | x8 | x8 | x8 | x8 | x8 | x8 | x8 | x8 | x8 ||[M:3/8] x3 | x3 | x3 | x3 | x3 | x3 | %109
 x3 | x3 | x3 | x3 | x3 | x3 | x3 | x3 | x3 | x3 | x3 | x3 | x3 | x3 | x3 | x3 | x3 | x3 | x3 | %128
 x3 | x3 | x3 | x3 | x3 |1 x3 :|2 x3 |: x3 | x3 | x3 | x3 | x3 | x3 | x3 | x3 | x3 | x3 | x3 | x3 | %147
 x3 | x3 | x3 | x3 | x3 | x3 | x3 | x3 | x3 | x3 | x3 | x3 | x3 | x3 | x3 | x3 | x3 | x3 | x3 | %166
 x3 | x3 | x3 | x3 | x3 | x3 | x3 | x3 | x3 | x3 | x3 | x3 | x3 :| x/4 |[M:4/4] x4 | x8 | x8 | x8 | %184
 x8 | x8 | x8 | x8 | x8 | x8 | x8 | x8 | x8 | x4 :: x4 | x8 | x8 | x8 | x8 | x8 | x8 | x8 | x8 | %203
 x8 | x8 | x8 | x8 | x8 | x8 | x8 | x8 | x8 | x8 | x4 G2 x2 | x4 :| %215
V:8
 x8 | x8 | x8 | x8 | x7 B/_c/ | x8 | x8 | x8 | x8 | x8 | x8 | x8 | x8 | x8 | x8 | x8 | x8 | x8 | %18
 x8 | x8 | x8 ||[M:3/4] x6 | x6 | x6 | x6 | x6 | x6 | x6 | x6 | x6 | x6 | x6 | x6 | x6 | x6 | x6 | %36
 x6 | x6 | x6 | x6 | x6 | x6 | x6 | x6 | x2 G2 F2 | x6 | x6 | x6 | A2 ^c2 x2 | x6 | x6 :: x6 | x6 | %53
 x6 | x6 | x6 | x6 | x6 | x6 | x6 | x6 | x6 | x6 | x6 | x6 | x6 | x6 | x6 | x6 | x6 | x6 | x6 | %72
 x6 | x6 | x6 | x6 | x6 | x6 | x6 | x6 | x6 :| x/4 |[M:4/4] x8 | cB x6 | x8 | x8 | x8 | x2 cA x4 | %88
 x8 | x8 | x8 | x8 | x8 | x8 | =e^c x6 | x8 | x8 | x8 | x8 | x8 | x8 | x8 | x8 ||[M:3/8] x3 | x3 | %105
 x3 | x3 | x3 | x3 | F2 B | x3 | x3 | x3 | x3 | x3 | x3 | x3 | x3 | dc x | x3 | x3 | x3 | x3 | x3 | %124
 B2 x | x3 | x3 | x3 | x3 | x3 | G[I:staff +1]F[I:staff -1]F | x3 | x3 |1 x3 :|2 x3 |: x3 | x3 | %137
 x3 | x3 | x3 | x3 | x3 | x3 | x3 | x3 | x3 | x3 | x3 | x3 | x3 | x3 | _AB x | x3 | x3 | x3 | %155
 ^cA x | x3 | x3 | x3 | x3 | x3 | x3 | x3 | x3 | x3 | x3 | x3 | x3 | x3 | x3 | x3 | x3 | x3 | x3 | %174
 x3 | dc x | x3 | x3 | x3 :| x/4 |[M:4/4] x4 | x8 | x8 | x8 | x8 | x8 | x8 | x4 cB x2 | x6 c=e | %189
 x2 Ac x4 | x8 | x8 | x8 | x4 :: x4 | x8 | x8 | x8 | x8 | x8 | x8 | x8 | x8 | x8 | x8 | x8 | x8 | %207
 x8 | x8 | x8 | x8 | x8 | x8 | x2 G2 x2 ^F2 | x4 :| %215
V:9
 x8 | x8 | x8 | x8 | x8 | x8 | x8 | x8 | x8 | x8 | x8 | x8 | x8 | x8 | x8 | x8 | x8 | x8 | x8 | %19
 x8 | x8 ||[M:3/4] x6 | x6 | x6 | x6 | x6 | x6 | x6 | x6 | x6 | x6 | x6 | x6 | x6 | x6 | x6 | x6 | %37
 x6 | x6 | x6 | x6 | x6 | x6 | x6 | x6 | x6 | x6 | x6 | x6 | x6 | x6 :: x6 | x6 | x2 F2 F2 | x6 | %55
 x6 | x6 | x6 | x6 | x6 | x6 | x6 | x6 | x6 | x6 | x6 | x6 | x6 | x6 | x6 | x6 | x6 | x6 | x6 | %74
 x6 | x6 | x6 | x6 | x6 | x6 | x6 :| x/4 |[M:4/4] x8 | x8 | x8 | x8 | x8 | x8 | x8 | x8 | x8 | x8 | %92
 x8 | x8 | x8 | x8 | x8 | x8 | x8 | x8 | x8 | x8 | x8 ||[M:3/8] x3 | x3 | x3 | x3 | x3 | x3 | x3 | %110
 x3 | x3 | x3 | x3 | x3 | x3 | x3 | x3 | x3 | x3 | x3 | x3 | x3 | x3 | x3 | x3 | x3 | x3 | x3 | %129
 x3 | x3 | x3 | x3 |1 x3 :|2 x3 |: x3 | x3 | x3 | x3 | x3 | x3 | x3 | x3 | x3 | x3 | x3 | x3 | x3 | %148
 x3 | x3 | x3 | x3 | x3 | x3 | x3 | x3 | x3 | x3 | x3 | x3 | x3 | x3 | x3 | x3 | x3 | x3 | x3 | %167
 x3 | x3 | x3 | x3 | x3 | x3 | x3 | x3 | x3 | x3 | x3 | x3 :| x/4 |[M:4/4] x4 | x8 | x8 | x8 | x8 | %185
 x8 | x8 | x8 | x8 | x8 | x8 | x8 | x8 | x4 :: x4 | x8 | x8 | x8 | x8 | x8 | x8 | x8 | x8 | x8 | %204
 x8 | x8 | x8 | x8 | x8 | x8 | x8 | x8 | x8 | x8 | x4 :| %215

